dist/controls/a.svg

<svg width="24" height="24" viewBox="0 0 24 24" fill="none" xmlns="http://www.w3.org/2000/svg">
<path fill-rule="evenodd" clip-rule="evenodd" d="M12 24C18.6274 24 24 18.6274 24 12C24 5.37258 18.6274 0 12 0C5.37258 0 0 5.37258 0 12C0 18.6274 5.37258 24 12 24ZM10.9365 5.31738L6.32227 18H8.3877L9.55664 14.5723H14.4434L15.6035 18H17.6689L13.0635 5.31738H10.9365ZM10.084 12.9902L11.9824 7.41797H12.0176L13.9072 12.9902H10.084Z" fill="white"/>
</svg>

<svg xmlns="http://www.w3.org/2000/svg" width="24" height="24" fill="none"><path fill="#fff" fill-rule="evenodd" d="M12 24c6.627 0 12-5.373 12-12S18.627 0 12 0 0 5.373 0 12s5.373 12 12 12M10.937 5.317 6.322 18h2.066l1.169-3.428h4.886L15.603 18h2.066L13.063 5.317zm-.853 7.673 1.898-5.572h.036l1.89 5.572z" clip-rule="evenodd"/></svg>
